assets/img/tooth.svg

<svg clip-rule="evenodd" fill-rule="evenodd" stroke-linejoin="round" stroke-miterlimit="1.41421" viewBox="0 0 56 64" xmlns="http://www.w3.org/2000/svg"><path d="m443.98 96.25c-11.01-45.22-47.11-82.06-92.01-93.72-32.19-8.36-63 5.1-89.14 24.33-3.25 2.39-6.96 3.73-10.5 5.48l28.32 18.21c7.42 4.77 9.58 14.67 4.8 22.11-4.46 6.95-14.27 9.86-22.11 4.8l-100.51-64.62c-20.7-10.85-43.38-16.4-66.81-10.31-44.9 11.67-81 48.5-92.01 93.72-10.13 41.62-.42 80.81 21.5 110.43 23.36 31.57 32.68 68.66 36.29 107.35 4.4 47.16 10.33 94.16 20.94 140.32l7.8 33.95c3.19 13.87 15.49 23.7 29.67 23.7 13.97 0 26.15-9.55 29.54-23.16l34.47-138.42c4.56-18.32 20.96-31.16 39.76-31.16s35.2 12.85 39.76 31.16l34.47 138.42c3.39 13.61 15.57 23.16 29.54 23.16 14.18 0 26.48-9.83 29.67-23.7l7.8-33.95c10.61-46.15 16.53-93.16 20.94-140.32 3.61-38.7 12.93-75.78 36.29-107.35 21.95-29.61 31.66-68.8 21.53-110.43z" fill="#fff" fill-rule="nonzero" transform="matrix(.123981 0 0 .123981 .000806 -.00012)"/></svg>

<?xml version="1.0" encoding="UTF-8" standalone="no"?>
<!DOCTYPE svg PUBLIC "-//W3C//DTD SVG 1.1//EN" "http://www.w3.org/Graphics/SVG/1.1/DTD/svg11.dtd">
<svg width="100%" height="100%" viewBox="0 0 56 64" version="1.1" xmlns="http://www.w3.org/2000/svg" xmlns:xlink="http://www.w3.org/1999/xlink" xml:space="preserve" xmlns:serif="http://www.serif.com/" style="fill-rule:evenodd;clip-rule:evenodd;stroke-linejoin:round;stroke-miterlimit:1.41421;">
    <g transform="matrix(0.123981,0,0,0.123981,0.000806483,-0.000120006)">
        <path d="M443.98,96.25C432.97,51.03 396.87,14.19 351.97,2.53C319.78,-5.83 288.97,7.63 262.83,26.86C259.58,29.25 255.87,30.59 252.33,32.34L280.65,50.55C288.07,55.32 290.23,65.22 285.45,72.66C280.99,79.61 271.18,82.52 263.34,77.46L162.83,12.84C142.13,1.99 119.45,-3.56 96.02,2.53C51.12,14.2 15.02,51.03 4.01,96.25C-6.12,137.87 3.59,177.06 25.51,206.68C48.87,238.25 58.19,275.34 61.8,314.03C66.2,361.19 72.13,408.19 82.74,454.35L90.54,488.3C93.73,502.17 106.03,512 120.21,512C134.18,512 146.36,502.45 149.75,488.84L184.22,350.42C188.78,332.1 205.18,319.26 223.98,319.26C242.78,319.26 259.18,332.11 263.74,350.42L298.21,488.84C301.6,502.45 313.78,512 327.75,512C341.93,512 354.23,502.17 357.42,488.3L365.22,454.35C375.83,408.2 381.75,361.19 386.16,314.03C389.77,275.33 399.09,238.25 422.45,206.68C444.4,177.07 454.11,137.88 443.98,96.25Z" style="fill:white;fill-rule:nonzero;"/>
    </g>
</svg>
